X:89
T:The Earl's Chair
R: reel
M: 4/4
L: 1/8
K: D
B2 dB BAFA | B2 dB BAFB | AF F2 DF F2 | AFdB ADFA |
B2 dB BAFA | B2 dB BAFB | A3 B defd |[1 edef d3 A :|[2 edef d3 f |]
|: e2 ef d2 df | edef dB A2 | e2 ef dcde | fedB ADFA |
e2 ef dB B2 | gB B2 defg | afbf afeg | fedB ADFA :|

